X:220
T: Liu jiejie
N: C0350
O: China,Anhui, Chaoxian
S: III, 574, 2)]
N: Wenn man beim Reispflanzen dieses Lied singt, fressen die Voegel die
N: Saat nicht mehr auf. Daher der geraeuschhafte Schluss.
N: Einige Verzierungen, Glissandi.
R: Shange, Tiange. Chang feiniao]
M: 4/4
L: 1/16
K: F
G2A2G2D2F4G2A2 | c2A2G2D2DF2DD4 |
F4G4G8
G8 | c2A2A2G2F2D6 |
G4D4F2D6 | c2A2A2G2F2D6 |
G4D4F2D6 | D4A2G2G2D2D4 |
A2D2F2F2G8 | A2D2F2F2G8 |
A6G2G2F2D4 | F2D2F2G2F4GFD2 | D12z4

@@@ Tune index: 6221
